img/hub-icon.svg

<?xml version="1.0" standalone="no"?><!DOCTYPE svg PUBLIC "-//W3C//DTD SVG 1.1//EN" "http://www.w3.org/Graphics/SVG/1.1/DTD/svg11.dtd"><svg width="100%" height="100%" viewBox="0 0 33 32" version="1.1" xmlns="http://www.w3.org/2000/svg" xmlns:xlink="http://www.w3.org/1999/xlink" xml:space="preserve" style="fill-rule:evenodd;clip-rule:evenodd;stroke-linejoin:round;stroke-miterlimit:1.41421;"><path id="github-icon" d="M16.094,0c-8.888,0 -16.094,7.206 -16.094,16.094c0,7.111 4.611,13.144 11.007,15.271c0.804,0.149 1.063,-0.348 1.063,-0.773l0,-2.997c-4.476,0.974 -5.409,-1.898 -5.409,-1.898c-0.731,-1.861 -1.786,-2.356 -1.786,-2.356c-1.46,-0.997 0.11,-0.978 0.11,-0.978c1.616,0.113 2.467,1.658 2.467,1.658c1.436,2.46 3.764,1.749 4.684,1.338c0.144,-1.04 0.561,-1.75 1.021,-2.152c-3.576,-0.405 -7.332,-1.786 -7.332,-7.954c0,-1.757 0.628,-3.193 1.658,-4.319c-0.168,-0.406 -0.718,-2.043 0.154,-4.259c0,0 1.352,-0.432 4.427,1.65c1.285,-0.356 2.662,-0.536 4.029,-0.542c1.367,0.006 2.746,0.186 4.031,0.542c3.072,-2.083 4.422,-1.65 4.422,-1.65c0.876,2.216 0.324,3.854 0.158,4.259c1.032,1.126 1.656,2.562 1.656,4.319c0,6.182 -3.765,7.542 -7.348,7.941c0.576,0.499 1.104,1.479 1.104,2.981c0,2.152 0,3.887 0,4.416c0,0.428 0.258,0.93 1.074,0.772c6.391,-2.131 10.996,-8.161 10.996,-15.27c0.002,-8.887 -7.204,-16.093 -16.092,-16.093Z" style="fill:#fff;fill-rule:nonzero;"/></svg>

<?xml version="1.0" encoding="UTF-8" standalone="no"?>
<!DOCTYPE svg PUBLIC "-//W3C//DTD SVG 1.1//EN" "http://www.w3.org/Graphics/SVG/1.1/DTD/svg11.dtd">
<svg width="100%" height="100%" viewBox="0 0 33 32" version="1.1" xmlns="http://www.w3.org/2000/svg" xmlns:xlink="http://www.w3.org/1999/xlink" xml:space="preserve" xmlns:serif="http://www.serif.com/" style="fill-rule:evenodd;clip-rule:evenodd;stroke-linejoin:round;stroke-miterlimit:1.41421;">
    <path id="github-icon" d="M16.094,0C7.206,0 0,7.206 0,16.094C0,23.205 4.611,29.238 11.007,31.365C11.811,31.514 12.07,31.017 12.07,30.592L12.07,27.595C7.594,28.569 6.661,25.697 6.661,25.697C5.93,23.836 4.875,23.341 4.875,23.341C3.415,22.344 4.985,22.363 4.985,22.363C6.601,22.476 7.452,24.021 7.452,24.021C8.888,26.481 11.216,25.77 12.136,25.359C12.28,24.319 12.697,23.609 13.157,23.207C9.581,22.802 5.825,21.421 5.825,15.253C5.825,13.496 6.453,12.06 7.483,10.934C7.315,10.528 6.765,8.891 7.637,6.675C7.637,6.675 8.989,6.243 12.064,8.325C13.349,7.969 14.726,7.789 16.093,7.783C17.46,7.789 18.839,7.969 20.124,8.325C23.196,6.242 24.546,6.675 24.546,6.675C25.422,8.891 24.87,10.529 24.704,10.934C25.736,12.06 26.36,13.496 26.36,15.253C26.36,21.435 22.595,22.795 19.012,23.194C19.588,23.693 20.116,24.673 20.116,26.175C20.116,28.327 20.116,30.062 20.116,30.591C20.116,31.019 20.374,31.521 21.19,31.363C27.581,29.232 32.186,23.202 32.186,16.093C32.188,7.206 24.982,0 16.094,0Z" style="fill:rgb(52,52,52);fill-rule:nonzero;"/>
</svg>
